public/img/shield.svg

<?xml version="1.0" encoding="utf-8"?>
<svg width="14px" height="17px" viewBox="0 0 14 17" version="1.1" xmlns:xlink="http://www.w3.org/1999/xlink" xmlns="http://www.w3.org/2000/svg">
  <desc>Created with Lunacy</desc>
  <path d="M4.65833 0C3.35229 1.33337 1.75901 2.3509 0 2.975C0.0666667 4.30833 0.608333 9.725 4.65833 11.6083C8.7 9.59167 9.25 4.30833 9.325 2.98333C7.54421 2.39528 5.93958 1.36946 4.65833 0ZM6.9 4.81667L4.13333 7.725L2.46667 6L3.05833 5.41667L4.15833 6.53333L6.325 4.25L6.9 4.81667Z" transform="translate(2.009766 2.81665)" id="Shape" fill="#0A82FE" stroke="none" />
  <path d="M13.3347 4.33333C13.3347 4.33333 10.0014 3.81667 6.66803 0C3.33469 3.80833 0.00136054 4.33333 0.00136054 4.33333C0.00136054 4.33333 -0.265306 13.9583 6.66803 16.6083C13.6097 13.95 13.3347 4.33333 13.3347 4.33333ZM6.843 15.2667L6.67633 15.3417L6.50133 15.2667C1.218 12.975 1.15967 5.79999 1.15967 5.49999L1.15967 5.18332L1.45967 5.09999C3.33782 4.47923 5.02313 3.38249 6.35133 1.91666L6.668 1.53333L6.98467 1.92499C8.27563 3.42248 9.9667 4.52095 11.8597 5.09166L12.168 5.17499L12.168 5.49999C12.1763 5.79166 12.118 12.8167 6.843 15.2667Z" id="Shape" fill="#01F1FD" stroke="none" />
</svg>

<svg width="14" height="17" xmlns="http://www.w3.org/2000/svg"><path d="M6.668 2.817A12.258 12.258 0 0 1 2.01 5.792c.066 1.333.608 6.75 4.658 8.633 4.042-2.017 4.592-7.3 4.667-8.625a11.2 11.2 0 0 1-4.667-2.983zM8.91 7.633l-2.767 2.909-1.667-1.725.592-.584 1.1 1.117 2.167-2.283.575.566z" fill="#0A82FE"/><path d="M13.335 4.333S10 3.817 6.668 0C3.335 3.808.001 4.333.001 4.333s-.266 9.625 6.667 12.275c6.942-2.658 6.667-12.275 6.667-12.275zM6.843 15.267l-.167.075-.175-.075C1.218 12.975 1.16 5.8 1.16 5.5v-.317l.3-.083a11.45 11.45 0 0 0 4.89-3.183l.317-.384.317.392a10.4 10.4 0 0 0 4.875 3.167l.308.083V5.5c.008.292-.05 7.317-5.325 9.767z" fill="#01F1FD"/></svg>
